X:1
T:Title
%%score { ( 1 3 ) | ( 2 4 ) }
L:1/8
M:6/8
K:Ab
V:1 treble nm="Grand Piano"
V:3 treble 
V:2 bass 
V:4 bass 
V:1
 z3 z2[Q:1/4=81] [CE] | [Ec][Fd][Ec] BcB | A[EG][DF] [CE]3 | [DA]>[DG][DF] G3 | d>cB c2 [CE] | %5
 [Ec][Fd][Ec] BcB | ABc [Fd]3 | [Ee]>[EA][Fd] c2 A | B3 z3 | B>Bc BGE | [EA]2 B c3 | c>cd c=AF | %12
 [DB]2 c d3 | [Gd]>[Gd][Ge] [Gd][EB][EG] |[M:13/16] [Ee][Ae][G=e]f-[Af]3/2[Af] | %15
[M:3/4] [Ee][EA] [Fd] c2 A |[M:5/8] B3 z2 |] %17
V:2
 z3 z2 [A,,A,] | [A,,A,][A,,A,][A,,A,] [E,G,D][E,G,E][E,G,D] | [F,A,C][C,A,][D,A,] [A,,A,]3 | %3
 [B,,E,]>[B,,E,][B,,E,] [E,B,D]3 | [E,B,E]>[E,A,E][E,G,E] [A,E]2 [A,,A,] | %5
 [A,,A,][A,,A,][A,,A,] [E,G,D][E,G,E][E,G,D] | [F,A,C][E,G,E][A,_G] [D,A,]3 | %7
 [C,A,]>[C,A,][D,A,] [E,A,E]2 [E,A,C] | .[E,G,D]3 .[A,,E,]3 | %9
 [E,G,D]>[E,G,D][E,G,D] [E,G,D][E,B,D][D,G,] | [C,A,]2 [E,G,E] [A,E]3 | %11
 [F,=A,E]>[F,A,E][F,A,F] [F,A,E][F,CE][F,A,E] | [B,,B,]2 [F,=A,E] [B,F]3 | %13
 [E,B,]>[E,B,][E,B,] [E,B,][E,G,][D,B,] |[M:13/16] [C,A,][C,A,][C,B,][D,A,]/-[D,A,]-<[D,A,][D,A,] | %15
[M:3/4] [C,A,][C,A,] [D,A,] [E,A,E]2 [E,A,C] |[M:5/8] D3 z2 |] %17
V:3
 x6 | x6 | x6 | x6 | x6 | x6 | x6 | x6 | z2 E, .[CA]3 | x6 | x6 | x6 | x6 | x6 | %14
[M:13/16] z/ z/ z/ z/ z .F3/2 z/ z/ z |[M:3/4] x6 |[M:5/8] z2 E, [CA]2 |] %17
V:4
 x6 | x6 | x6 | x6 | x6 | x6 | x6 | x6 | x6 | x6 | x6 | x6 | x6 | x6 |[M:13/16] x13/2 |[M:3/4] x6 | %16
[M:5/8] [E,G,]2 z [A,,E,]2 |] %17

